;FLAVOR:Marlin
;TIME:3278
;Filament used: 1.54867m
;Layer height: 0.2
;MINX:32.023
;MINY:33.379
;MINZ:0.3
;MAXX:47.888
;MAXY:88.439
;MAXZ:48.7
;Generated with Cura_SteamEngine 4.5.0
M140 S50
M105
M190 S50
M104 S200
M105
M109 S200
M82 ;absolute extrusion mode
; Ender 3 Custom Start G-code
G92 E0 ; Reset Extruder
G28 ; Home all axes
G1 Z2.0 F3000 ; Move Z Axis up little to prevent scratching of Heat Bed
G1 X0.1 Y20 Z0.3 F5000.0 ; Move to start position
G1 X0.1 Y200.0 Z0.3 F1500.0 E15 ; Draw the first line
G1 X0.4 Y200.0 Z0.3 F5000.0 ; Move to side a little
G1 X0.4 Y20 Z0.3 F1500.0 E30 ; Draw the second line
G92 E0 ; Reset Extruder
G1 Z2.0 F3000 ; Move Z Axis up little to prevent scratching of Heat Bed
G1 X5 Y20 Z0.3 F5000.0 ; Move over to prevent blob squish
G90; absolute xyz
G92 E0
G92 E0
G1 F2700 E-5
;LAYER_COUNT:244
;LAYER:0
M107
;MESH:LowPoly_Dog_Posed.stl
G0 F6000 X46.639 Y86.372 Z0.3
;TYPE:WALL-INNER
G1 F2700 E0
G1 F1200 X44.924 Y85.886 E0.08893
G1 X44.42 Y83.76 E0.19794
G1 X44.745 Y82.219 E0.27651
G1 X44.823 Y82.063 E0.28521
G1 X46.778 Y82.405 E0.38423
G1 X47.09 Y82.499 E0.40048
G1 X47.266 Y84.261 E0.48883
G1 X47.352 Y85.18 E0.53488
G1 X47.141 Y85.382 E0.54945
G1 X47.102 Y85.636 E0.56227
G1 X46.639 Y86.372 E0.60565
G0 F6000 X46.822 Y86.831
;TYPE:WALL-OUTER
G1 F1200 X46.548 Y86.762 E0.61975
G1 X44.589 Y86.207 E0.72133
G1 X44.011 Y83.766 E0.84648
G1 X44.365 Y82.083 E0.93228
G1 X44.598 Y81.618 E0.95823
G1 X46.869 Y82.015 E1.07325
G1 X47.461 Y82.193 E1.10409
G1 X47.664 Y84.224 E1.20592
G1 X47.767 Y85.323 E1.26099
G1 X47.752 Y85.352 E1.26262
G1 X47.516 Y85.577 E1.27889
G1 X47.486 Y85.777 E1.28898
G1 X46.822 Y86.831 E1.35113
G0 F6000 X46.465 Y85.917
;TYPE:SKIN
G1 F1200 X45.251 Y85.573 E1.41408
G1 X44.82 Y83.754 E1.50734
G1 X45.084 Y82.505 E1.57103
G1 X46.685 Y82.784 E1.65211
G1 X46.728 Y82.797 E1.65435
G1 X46.878 Y84.298 E1.72961
G1 X46.946 Y85.029 E1.76624
G1 X46.776 Y85.192 E1.77799
G1 X46.728 Y85.498 E1.79344
G1 X46.465 Y85.917 E1.81812
G0 F6000 X46.7 Y86.066
G0 X46.559 Y86.164
G0 X45.071 Y85.745
G0 X44.812 Y84.94
G0 X45.241 Y84.839
G1 F1200 X46.028 Y85.626 E1.87365
G0 F6000 X46.511 Y85.543
G1 F1200 X45.066 Y84.098 E1.9756
G0 F6000 X45.036 Y83.502
G1 F1200 X46.636 Y85.103 E2.08852
G0 F6000 X46.751 Y84.651
G1 F1200 X45.134 Y83.035 E2.20258
G0 F6000 X45.384 Y82.719
G1 F1200 X46.69 Y84.026 E2.29476
G0 F6000 X46.628 Y83.397
G1 F1200 X46.068 Y82.838 E2.33423
G0 F6000 X46.131 Y82.495
G1 F2700 E-2.66577
G0 F6000 X46.147 Y82.407
G0 X44.921 Y82.264
G0 X44.235 Y83.763
G0 X43.174 Y83.541
G0 X36.847 Y83.539
G0 X35.787 Y83.762
G0 X34.951 Y85.745
G0 X33.457 Y86.352
;TYPE:WALL-INNER
G1 F2700 E2.33423
G1 F1200 X32.786 Y85.29 E2.39691
G1 X32.67 Y85.18 E2.40488
G1 X32.757 Y84.264 E2.45079
G1 X32.933 Y82.497 E2.53938
G1 X33.237 Y82.405 E2.55522
G1 X35.199 Y82.063 E2.65458
G1 X35.277 Y82.219 E2.66329
G1 X35.602 Y83.759 E2.74181
G1 X35.098 Y85.886 E2.85086
G1 X33.457 Y86.352 E2.93597
G0 F6000 X33.275 Y86.813
;TYPE:WALL-OUTER
G1 F1200 X32.474 Y85.546 E3.01075
G1 X32.269 Y85.351 E3.02487
G1 X32.255 Y85.324 E3.02639
G1 X32.359 Y84.224 E3.08151
G1 X32.561 Y82.191 E3.18344
G1 X33.146 Y82.015 E3.21392
G1 X35.424 Y81.618 E3.32928
G1 X35.657 Y82.083 E3.35523
G1 X36.011 Y83.765 E3.44098
G1 X35.433 Y86.207 E3.56618
G1 X33.474 Y86.763 E3.66777
G1 X33.275 Y86.813 E3.67801
G0 F6000 X33.631 Y85.897
;TYPE:SKIN
G1 F1200 X33.076 Y85.027 E3.72949
G1 X33.145 Y84.301 E3.76588
G1 X33.295 Y82.794 E3.84143
G1 X33.327 Y82.785 E3.84309
G1 X34.938 Y82.504 E3.92468
G1 X35.202 Y83.753 E3.98837
G1 X34.771 Y85.573 E4.08168
G1 X33.631 Y85.897 E4.14081
G0 F6000 X34.114 Y85.591
G1 F1200 X33.263 Y84.741 E4.20082
G0 F6000 X33.312 Y84.224
G1 F1200 X34.554 Y85.466 E4.28844
G0 F6000 X34.725 Y85.071
G1 F1200 X33.363 Y83.709 E4.38454
G0 F6000 X33.415 Y83.195
G1 F1200 X34.833 Y84.613 E4.48459
G0 F6000 X34.941 Y84.156
G1 F1200 X33.672 Y82.887 E4.57412
G0 F6000 X34.153 Y82.802
G1 F1200 X35.021 Y83.67 E4.63537
G0 F6000 X34.869 Y82.952
G1 F1200 X34.635 Y82.718 E4.65188
G0 F6000 X34.576 Y82.375
G1 F2700 E-0.34812
G0 F6000 X34.562 Y82.286
G0 X35.302 Y81.858
G0 X35.116 Y80.794
G0 X39.074 Y68.187
G0 X39.797 Y67.382
G0 X40.164 Y67.192
;TYPE:WALL-INNER
G1 F2700 E4.65188
G1 F1200 X40.012 Y67.173 E4.65952
G1 X39.857 Y67.192 E4.66731
G1 X37.782 Y65.325 E4.80657
G1 X37.219 Y64.844 E4.84351
G1 X35.902 Y62.926 E4.95959
G1 X35.712 Y59.203 E5.14557
G1 X36.328 Y57.617 E5.23045
G1 X35.855 Y56.935 E5.27186
G1 X35.776 Y56.821 E5.27878
G1 X33.996 Y54.257 E5.4345
G1 X33.927 Y53.962 E5.44962
G1 X34.027 Y52.576 E5.51895
G1 X34.446 Y47.295 E5.78324
G1 X34.827 Y39.62 E6.16662
G1 X33.823 Y37.846 E6.26832
G1 X33.508 Y35.897 E6.36682
G1 X34.303 Y34.666 E6.43993
G1 X34.956 Y34.344 E6.47625
G1 X36.566 Y34.721 E6.55875
G1 X37.202 Y35.493 E6.60865
G1 X37.338 Y36.545 E6.66157
G1 X36.21 Y39.852 E6.83589
G1 X36.163 Y40.037 E6.84541
G1 X35.999 Y41.38 E6.91291
G1 X35.705 Y48.488 E7.26784
G1 X35.773 Y49.336 E7.31028
G1 X35.72 Y51.687 E7.4276
G1 X36.099 Y54.379 E7.56323
G1 X36.777 Y55.593 E7.6326
G1 X36.105 Y56.692 E7.69687
G1 X36.033 Y56.81 E7.70244
G1 X36.56 Y57.413 E7.72849
G1 X36.612 Y57.473 E7.73245
G1 X37.629 Y57.027 E7.78785
G1 X38.38 Y56.714 E7.82844
G1 X40.011 Y56.656 E7.90987
G1 X41.644 Y56.713 E7.99139
G1 X42.389 Y57.026 E8.0317
G1 X43.41 Y57.473 E8.08731
G1 X43.461 Y57.414 E8.0912
G1 X43.989 Y56.81 E8.13122
G1 X43.917 Y56.692 E8.13812
G1 X43.246 Y55.591 E8.20245
G1 X43.923 Y54.379 E8.27171
G1 X44.301 Y51.685 E8.40743
G1 X44.248 Y49.336 E8.52465
G1 X44.316 Y48.484 E8.56729
G1 X43.862 Y39.997 E8.99131
G1 X42.685 Y36.544 E9.17332
G1 X42.82 Y35.493 E9.22618
G1 X43.458 Y34.72 E9.27619
G1 X45.065 Y34.343 E9.35854
G1 X45.719 Y34.666 E9.39493
G1 X46.514 Y35.897 E9.46804
G1 X46.198 Y37.847 E9.56659
G1 X45.195 Y39.62 E9.66822
G1 X45.576 Y47.295 E10.0516
G1 X45.994 Y52.57 E10.3156
G1 X46.095 Y53.962 E10.38523
G1 X46.026 Y54.257 E10.40034
G1 X44.247 Y56.82 E10.55599
G1 X44.168 Y56.934 E10.56159
G1 X43.694 Y57.617 E10.58919
G1 X44.31 Y59.203 E10.67407
G1 X44.121 Y62.926 E10.86005
G1 X42.801 Y64.846 E10.9763
G1 X42.239 Y65.326 E11.01317
G1 X40.164 Y67.192 E11.15239
G0 F6000 X40.295 Y67.612
;TYPE:WALL-OUTER
G1 F1200 X40.011 Y67.576 E11.16668
G1 X39.726 Y67.611 E11.181
G1 X37.518 Y65.626 E11.32913
G1 X36.919 Y65.114 E11.36844
G1 X35.509 Y63.06 E11.49274
G1 X35.309 Y59.136 E11.68876
G1 X35.878 Y57.67 E11.76722
G1 X33.623 Y54.422 E11.96449
G1 X33.524 Y53.994 E11.9864
G1 X33.628 Y52.544 E12.05893
G1 X34.047 Y47.269 E12.32293
G1 X34.422 Y39.716 E12.70021
G1 X33.439 Y37.98 E12.79975
G1 X33.088 Y35.809 E12.90946
G1 X34.027 Y34.356 E12.99577
G1 X34.907 Y33.922 E13.04473
G1 X36.789 Y34.363 E13.14116
G1 X37.584 Y35.328 E13.20354
G1 X37.747 Y36.586 E13.26683
G1 X36.594 Y39.966 E13.445
G1 X36.557 Y40.111 E13.45246
G1 X36.398 Y41.413 E13.5179
G1 X36.106 Y48.48 E13.87078
G1 X36.173 Y49.323 E13.91297
G1 X36.121 Y51.663 E14.02974
G1 X36.485 Y54.249 E14.16003
G1 X37.24 Y55.602 E14.23733
G1 X36.527 Y56.768 E14.30551
G1 X36.72 Y56.989 E14.32015
G1 X37.475 Y56.658 E14.36128
G1 X38.294 Y56.317 E14.40554
G1 X40.011 Y56.255 E14.49126
G1 X41.731 Y56.316 E14.57712
G1 X42.544 Y56.657 E14.62111
G1 X43.302 Y56.989 E14.66239
G1 X43.495 Y56.768 E14.67703
G1 X42.783 Y55.6 E14.74527
G1 X43.537 Y54.249 E14.82246
G1 X43.9 Y51.662 E14.95279
G1 X43.847 Y49.323 E15.06952
G1 X43.915 Y48.479 E15.11176
G1 X43.466 Y40.074 E15.53169
G1 X42.276 Y36.585 E15.7156
G1 X42.438 Y35.327 E15.77888
G1 X43.234 Y34.362 E15.84129
G1 X45.115 Y33.921 E15.93768
G1 X45.995 Y34.356 E15.98665
G1 X46.934 Y35.809 E16.07296
G1 X46.582 Y37.981 E16.18274
G1 X45.6 Y39.716 E16.2822
G1 X45.975 Y47.269 E16.65948
G1 X46.393 Y52.541 E16.92333
G1 X46.498 Y53.994 E16.99601
G1 X46.399 Y54.422 E17.01793
G1 X44.144 Y57.67 E17.2152
G1 X44.713 Y59.136 E17.29365
G1 X44.514 Y63.061 E17.48972
G1 X43.102 Y65.115 E17.61407
G1 X42.503 Y65.627 E17.65339
G1 X40.295 Y67.612 E17.80152
G0 F6000 X40.138 Y67.162
G0 X40.036 Y66.783
;TYPE:SKIN
G1 F1200 X40.012 Y66.78 E17.80272
G1 X39.986 Y66.783 E17.80403
G1 X38.039 Y65.032 E17.93467
G1 X37.514 Y64.584 E17.9691
G1 X36.286 Y62.796 E18.07732
G1 X36.106 Y59.264 E18.25376
G1 X36.642 Y57.886 E18.32752
G1 X37.733 Y57.407 E18.38697
G1 X38.464 Y57.102 E18.42649
G1 X40.011 Y57.046 E18.50372
G1 X41.561 Y57.101 E18.58109
G1 X42.233 Y57.383 E18.61745
G1 X43.38 Y57.886 E18.67994
G1 X43.916 Y59.264 E18.7537
G1 X43.737 Y62.796 E18.93014
G1 X42.506 Y64.586 E19.03853
G1 X41.982 Y65.033 E19.07289
G1 X40.036 Y66.783 E19.20346
G0 F6000 X40.012 Y67.061
G0 X37.347 Y64.728
G0 X36.712 Y63.91
G0 X37.075 Y63.662
G1 F1200 X39.926 Y66.513 E19.40461
G0 F6000 X40.303 Y66.325
G1 F1200 X36.428 Y62.45 E19.67801
G0 F6000 X36.398 Y61.854
G1 F1200 X40.602 Y66.057 E19.97459
G0 F6000 X40.899 Y65.789
G1 F1200 X36.367 Y61.258 E20.29431
G0 F6000 X36.337 Y60.661
G1 F1200 X41.197 Y65.521 E20.63721
G0 F6000 X41.495 Y65.253
G1 F1200 X36.307 Y60.065 E21.00326
G0 F6000 X36.277 Y59.47
G1 F1200 X41.793 Y64.986 E21.39244
G0 F6000 X42.096 Y64.723
G1 F1200 X36.377 Y59.005 E21.79591
G0 F6000 X36.536 Y58.597
G1 F1200 X42.398 Y64.46 E22.20954
G0 F6000 X42.629 Y64.125
G1 F1200 X36.694 Y58.19 E22.62829
G0 F6000 X36.98 Y57.911
G1 F1200 X42.859 Y63.79 E23.04308
G0 F6000 X43.09 Y63.455
G1 F1200 X37.374 Y57.738 E23.44641
G0 F6000 X37.766 Y57.565
G1 F1200 X43.32 Y63.119 E23.83828
G0 F6000 X43.551 Y62.784
G1 F1200 X38.166 Y57.4 E24.21818
G0 F6000 X38.589 Y57.257
G1 F1200 X43.603 Y62.271 E24.57195
G0 F6000 X43.631 Y61.733
G1 F1200 X39.135 Y57.237 E24.88916
G0 F6000 X39.681 Y57.217
G1 F1200 X43.658 Y61.194 E25.16976
G0 F6000 X43.685 Y60.656
G1 F1200 X40.242 Y57.213 E25.41269
G0 F6000 X40.829 Y57.234
G1 F1200 X43.712 Y60.117 E25.6161
G0 F6000 X43.74 Y59.579
G1 F1200 X41.416 Y57.255 E25.78007
G0 F6000 X42.322 Y57.595
G1 F1200 X43.588 Y58.862 E25.86943
G0 F6000 X43.998 Y58.704
G0 X43.599 Y57.676
G0 X43.552 Y57.694
;TYPE:SKIN
G1 F1200 X43.485 Y57.627 E25.87179
G0 F6000 X43.514 Y57.594
G0 X41.606 Y56.883
G0 X40.011 Y56.826
G0 X38.418 Y56.884
G0 X36.415 Y57.698
G0 X36.529 Y57.743
G1 F1200 X36.472 Y57.685 E25.87382
G0 F6000 X36.427 Y57.667
G0 X38.418 Y56.884
G0 X41.681 Y56.554
G0 X43.364 Y57.27
G0 X43.781 Y56.792
G0 X43.459 Y55.728
G0 X43.698 Y55.583
;TYPE:SKIN
G1 F1200 X44.299 Y54.506 E25.93535
G1 X44.691 Y51.708 E26.07631
G1 X44.638 Y49.336 E26.19467
G1 X44.706 Y48.49 E26.23702
G1 X44.248 Y39.923 E26.66504
G1 X43.083 Y36.502 E26.84534
G1 X43.192 Y35.656 E26.88789
G1 X43.675 Y35.07 E26.92578
G1 X45.019 Y34.754 E26.99466
G1 X45.448 Y34.966 E27.01853
G1 X46.105 Y35.984 E27.07898
G1 X45.824 Y37.716 E27.16652
G1 X44.8 Y39.526 E27.27027
G1 X45.186 Y47.32 E27.65959
G1 X45.606 Y52.598 E27.92375
G1 X45.703 Y53.926 E27.99018
G1 X45.662 Y54.098 E27.999
G1 X44.134 Y56.299 E28.13267
G1 X43.698 Y55.583 E28.1745
G0 F6000 X44.368 Y55.681
G1 F1200 X44.02 Y55.333 E28.19905
G0 F6000 X44.222 Y54.97
G1 F1200 X44.6 Y55.348 E28.22572
G0 F6000 X44.831 Y55.013
G1 F1200 X44.425 Y54.607 E28.25437
G0 F6000 X44.512 Y54.129
G1 F1200 X45.063 Y54.679 E28.29321
G0 F6000 X45.294 Y54.345
G1 F1200 X44.582 Y53.633 E28.34344
G0 F6000 X44.651 Y53.136
G1 F1200 X45.518 Y54.003 E28.40461
G0 F6000 X45.506 Y53.426
G1 F1200 X44.72 Y52.64 E28.46007
G0 F6000 X44.79 Y52.144
G1 F1200 X45.462 Y52.815 E28.50745
G0 F6000 X45.414 Y52.202
G1 F1200 X44.848 Y51.637 E28.54735
G0 F6000 X45.365 Y51.587
G1 F1200 X44.836 Y51.058 E28.58467
G0 F6000 X45.316 Y50.973
G1 F1200 X44.823 Y50.48 E28.61945
G0 F6000 X45.267 Y50.358
G1 F1200 X44.81 Y49.901 E28.6517
G0 F6000 X45.218 Y49.744
G1 F1200 X44.798 Y49.324 E28.68133
G0 F6000 X45.169 Y49.129
G1 F1200 X44.84 Y48.8 E28.70454
G0 F6000 X45.12 Y48.514
G1 F1200 X44.852 Y48.246 E28.72345
G0 F6000 X45.071 Y47.9
G1 F1200 X44.82 Y47.649 E28.74116
G0 F6000 X45.023 Y47.286
G1 F1200 X44.788 Y47.051 E28.75774
G0 F6000 X44.994 Y46.691
G1 F1200 X44.756 Y46.453 E28.77454
G0 F6000 X44.964 Y46.096
G1 F1200 X44.724 Y45.855 E28.7915
G0 F6000 X44.935 Y45.5
G1 F1200 X44.692 Y45.258 E28.80861
G0 F6000 X44.906 Y44.906
G1 F1200 X44.66 Y44.66 E28.82597
G0 F6000 X44.876 Y44.31
G1 F1200 X44.628 Y44.062 E28.84347
G0 F6000 X44.846 Y43.715
G1 F1200 X44.596 Y43.465 E28.86111
G0 F6000 X44.817 Y43.12
G1 F1200 X44.564 Y42.867 E28.87896
G0 F6000 X44.788 Y42.525
G1 F1200 X44.532 Y42.27 E28.89698
G0 F6000 X44.758 Y41.93
G1 F1200 X44.5 Y41.671 E28.91522
G0 F6000 X44.729 Y41.335
G1 F1200 X44.468 Y41.074 E28.93364
G0 F6000 X44.699 Y40.739
G1 F1200 X44.436 Y40.476 E28.95219
G0 F6000 X44.67 Y40.144
G1 F1200 X44.398 Y39.873 E28.97135
G0 F6000 X44.641 Y39.549
G1 F1200 X44.106 Y39.015 E29.00906
G0 F6000 X44.821 Y39.164
G1 F1200 X43.815 Y38.158 E29.08004
G0 F6000 X43.523 Y37.3
G1 F1200 X45.025 Y38.803 E29.18605
G0 F6000 X45.229 Y38.441
G1 F1200 X43.248 Y36.46 E29.32582
G0 F6000 X43.313 Y35.959
G1 F1200 X45.433 Y38.079 E29.4754
G0 F6000 X45.638 Y37.718
G1 F1200 X43.477 Y35.558 E29.62783
G0 F6000 X43.733 Y35.248
G1 F1200 X45.737 Y37.251 E29.76919
G0 F6000 X45.816 Y36.765
G1 F1200 X44.169 Y35.118 E29.88539
G0 F6000 X44.627 Y35.01
G1 F1200 X45.895 Y36.278 E29.97486
G0 F6000 X46.328 Y36.349
G0 X46.332 Y35.977
G0 X45.827 Y35.035
G0 X45.456 Y35.274
G1 F1200 X45.209 Y35.027 E29.99229
G1 F2700 E24.99229
G0 F6000 X45.404 Y34.634
G0 X45.043 Y34.525
G0 X43.555 Y34.875
G0 X42.665 Y35.424
G0 X42.519 Y36.561
G0 X43.703 Y40.029
G0 X44.154 Y48.482
G0 X44.139 Y51.676
G0 X43.767 Y54.326
G0 X43.054 Y55.596
G0 X43.781 Y56.792
G0 X43.364 Y57.27
G0 X40.011 Y56.495
G0 X36.658 Y57.27
G0 X36.241 Y56.792
G0 X36.969 Y55.597
G0 X36.255 Y54.326
G0 X35.882 Y51.677
G0 X35.867 Y48.484
G0 X36.16 Y41.394
G0 X36.324 Y40.183
G0 X37.204 Y36.594
G0 X36.94 Y36.503
G1 F2700 E29.99229
G1 F1200 X35.836 Y39.741 E30.16296
G1 X35.779 Y39.965 E30.17449
G1 X35.61 Y41.349 E30.24405
G1 X35.315 Y48.496 E30.60092
G1 X35.383 Y49.336 E30.64297
G1 X35.33 Y51.71 E30.76144
G1 X35.723 Y54.506 E30.9023
G1 X36.325 Y55.585 E30.96394
G1 X35.888 Y56.3 E31.00575
G1 X34.36 Y54.098 E31.13947
G1 X34.32 Y53.929 E31.14813
G1 X34.416 Y52.606 E31.21431
G1 X34.836 Y47.32 E31.47886
G1 X35.222 Y39.526 E31.86818
G1 X34.197 Y37.714 E31.97204
G1 X33.917 Y35.984 E32.05948
G1 X34.574 Y34.966 E32.11992
G1 X35.002 Y34.755 E32.14373
G1 X36.349 Y35.071 E32.21276
G1 X36.83 Y35.655 E32.2505
G1 X36.94 Y36.503 E32.29317
G0 F6000 X37.204 Y36.594
G0 X37.038 Y35.566
G0 X36.469 Y34.876
G0 X35.734 Y34.64
G0 X35.634 Y35.068
G1 F1200 X36.734 Y36.169 E32.37081
G0 F6000 X36.702 Y36.702
G1 F1200 X34.955 Y34.955 E32.49407
G0 F6000 X34.619 Y35.185
G1 F1200 X36.558 Y37.124 E32.63088
G0 F6000 X36.415 Y37.546
G1 F1200 X34.398 Y35.529 E32.77319
G0 F6000 X34.176 Y35.873
G1 F1200 X36.271 Y37.968 E32.921
G0 F6000 X36.127 Y38.39
G1 F1200 X34.147 Y36.41 E33.0607
G0 F6000 X34.257 Y37.085
G1 F1200 X35.983 Y38.812 E33.18252
G0 F6000 X35.84 Y39.234
G1 F1200 X34.462 Y37.856 E33.27974
G0 F6000 X34.077 Y38.073
G0 X34.814 Y39.374
G0 X35.198 Y39.158
G1 F1200 X35.696 Y39.655 E33.31484
G0 F6000 X35.363 Y39.889
G1 F1200 X35.598 Y40.124 E33.33142
G0 F6000 X35.337 Y40.428
G1 F1200 X35.537 Y40.628 E33.34553
G0 F6000 X35.31 Y40.967
G1 F1200 X35.476 Y41.133 E33.35725
G0 F6000 X35.283 Y41.506
G1 F1200 X35.438 Y41.661 E33.36818
G0 F6000 X35.257 Y42.045
G1 F1200 X35.416 Y42.204 E33.3794
G0 F6000 X35.23 Y42.584
G1 F1200 X35.393 Y42.747 E33.3909
G0 F6000 X35.204 Y43.123
G1 F1200 X35.37 Y43.29 E33.40265
G0 F6000 X35.177 Y43.662
G1 F1200 X35.348 Y43.834 E33.41475
G0 F6000 X35.15 Y44.201
G1 F1200 X35.326 Y44.377 E33.42717
G0 F6000 X35.124 Y44.74
G1 F1200 X35.303 Y44.92 E33.43983
G0 F6000 X35.097 Y45.279
