;FLAVOR:Marlin
;TIME:1365
;Filament used: 1.2493m
;Layer height: 0.3
;MINX:21.219
;MINY:28.055
;MINZ:0.3
;MAXX:40.819
;MAXY:47.655
;MAXZ:19.8
;Generated with Cura_SteamEngine 4.5.0
M140 S50
M105
M190 S50
M104 S200
M105
M109 S200
M82 ;absolute extrusion mode
; Ender 3 Custom Start G-code
G92 E0 ; Reset Extruder
G28 ; Home all axes
G1 Z2.0 F3000 ; Move Z Axis up little to prevent scratching of Heat Bed
G1 X0.1 Y20 Z0.3 F5000.0 ; Move to start position
G1 X0.1 Y200.0 Z0.3 F1500.0 E15 ; Draw the first line
G1 X0.4 Y200.0 Z0.3 F5000.0 ; Move to side a little
G1 X0.4 Y20 Z0.3 F1500.0 E30 ; Draw the second line
G92 E0 ; Reset Extruder
G1 Z2.0 F3000 ; Move Z Axis up little to prevent scratching of Heat Bed
G1 X5 Y20 Z0.3 F5000.0 ; Move over to prevent blob squish
G90; absolute xyz
G92 E0
G92 E0
G1 F2700 E-5
;LAYER_COUNT:66
;LAYER:0
M107
;MESH:Ripple_test.STL
G0 F6000 X37.619 Y44.455 Z0.3
;TYPE:WALL-INNER
G1 F2700 E0
G1 F1200 X37.619 Y31.255 E0.65855
G1 X24.419 Y31.255 E1.3171
G1 X24.419 Y44.455 E1.97565
G1 X37.619 Y44.455 E2.6342
G0 F6000 X37.219 Y44.055
;TYPE:WALL-OUTER
G1 F1200 X37.219 Y31.655 E3.25284
G1 X24.819 Y31.655 E3.87148
G1 X24.819 Y44.055 E4.49012
G1 X37.219 Y44.055 E5.10876
G1 F2700 E0.10876
G0 F6000 X37.519 Y44.055
G0 X37.815 Y44.651
G0 X37.815 Y47.045
G0 X40.419 Y47.255
;TYPE:WALL-INNER
G1 F2700 E5.10876
G1 F1200 X21.619 Y47.255 E6.04669
G1 X21.619 Y28.455 E6.98463
G1 X40.419 Y28.455 E7.92256
G1 X40.419 Y47.255 E8.8605
G0 F6000 X40.819 Y47.655
;TYPE:WALL-OUTER
G1 F1200 X21.219 Y47.655 E9.83835
G1 X21.219 Y28.055 E10.8162
G1 X40.819 Y28.055 E11.79404
G1 X40.819 Y47.655 E12.77189
G0 F6000 X40.549 Y47.385
G0 X40.309 Y46.865
G0 X40.029 Y46.865
;TYPE:SKIN
G1 F1200 X22.009 Y46.865 E13.67091
G1 X22.009 Y28.845 E14.56993
G1 X40.029 Y28.845 E15.46896
G1 X40.029 Y46.865 E16.36798
G1 F2700 E11.36798
G0 F6000 X40.309 Y46.865
G0 X40.209 Y44.595
G0 X37.809 Y44.595
G0 X37.729 Y44.595
G0 X38.009 Y44.845
G1 F2700 E16.36798
G1 F1200 X38.009 Y30.865 E17.06544
G1 X24.029 Y30.865 E17.76291
G1 X24.029 Y44.845 E18.46037
G1 X38.009 Y44.845 E19.15784
G1 F2700 E14.15784
G0 F6000 X37.729 Y44.595
G0 X37.815 Y31.059
G0 X40.209 Y31.059
G0 X40.309 Y29.121
G0 X39.869 Y29.121
G1 F2700 E19.15784
G1 F1200 X39.752 Y29.004 E19.16609
G0 F6000 X39.187 Y29.004
G1 F1200 X39.869 Y29.687 E19.21425
G0 F6000 X39.869 Y30.252
G1 F1200 X38.621 Y29.004 E19.3023
G0 F6000 X38.055 Y29.004
G1 F1200 X39.869 Y30.818 E19.43029
G0 F6000 X39.869 Y31.384
G1 F1200 X37.49 Y29.004 E19.59817
G0 F6000 X36.924 Y29.004
G1 F1200 X39.869 Y31.949 E19.80596
G0 F6000 X39.869 Y32.515
G1 F1200 X38.168 Y30.814 E19.92597
G0 F6000 X38.058 Y30.704
G1 F1200 X36.358 Y29.004 E20.04592
G0 F6000 X35.793 Y29.004
G1 F1200 X37.492 Y30.704 E20.16583
G0 F6000 X36.927 Y30.704
G1 F1200 X35.227 Y29.004 E20.28577
G0 F6000 X34.661 Y29.004
G1 F1200 X36.361 Y30.704 E20.40572
G0 F6000 X35.795 Y30.704
G1 F1200 X34.095 Y29.004 E20.52566
G0 F6000 X33.53 Y29.004
G1 F1200 X35.23 Y30.704 E20.6456
G0 F6000 X34.664 Y30.704
G1 F1200 X32.964 Y29.004 E20.76555
G0 F6000 X32.398 Y29.004
G1 F1200 X34.098 Y30.704 E20.88549
G0 F6000 X33.533 Y30.704
G1 F1200 X31.833 Y29.004 E21.00544
G0 F6000 X31.267 Y29.004
G1 F1200 X32.967 Y30.704 E21.12538
G0 F6000 X32.401 Y30.704
G1 F1200 X30.701 Y29.004 E21.24533
G0 F6000 X30.136 Y29.004
G1 F1200 X31.836 Y30.704 E21.36527
G0 F6000 X31.27 Y30.704
G1 F1200 X29.57 Y29.004 E21.48521
G0 F6000 X29.004 Y29.004
G1 F1200 X30.703 Y30.703 E21.60509
G0 F6000 X30.138 Y30.703
G1 F1200 X28.439 Y29.004 E21.72496
G0 F6000 X27.873 Y29.004
G1 F1200 X29.572 Y30.703 E21.84483
G0 F6000 X29.006 Y30.703
G1 F1200 X27.307 Y29.004 E21.96471
G0 F6000 X26.742 Y29.004
G1 F1200 X28.441 Y30.703 E22.08458
G0 F6000 X27.875 Y30.703
G1 F1200 X26.176 Y29.004 E22.20446
G0 F6000 X25.61 Y29.004
G1 F1200 X27.309 Y30.703 E22.32433
G0 F6000 X26.744 Y30.703
G1 F1200 X25.045 Y29.004 E22.4442
G0 F6000 X24.479 Y29.004
G1 F1200 X26.178 Y30.703 E22.56408
G0 F6000 X25.612 Y30.703
G1 F1200 X23.913 Y29.004 E22.68395
G0 F6000 X23.347 Y29.004
G1 F1200 X25.047 Y30.703 E22.80386
G0 F6000 X24.481 Y30.703
G1 F1200 X22.782 Y29.004 E22.92373
G0 F6000 X22.216 Y29.004
G1 F1200 X23.915 Y30.703 E23.04361
G0 F6000 X23.869 Y31.223
G1 F1200 X22.169 Y29.523 E23.16355
G0 F6000 X22.169 Y30.088
G1 F1200 X23.869 Y31.788 E23.28349
G0 F6000 X23.869 Y32.354
G1 F1200 X22.169 Y30.654 E23.40344
G0 F6000 X22.169 Y31.22
G1 F1200 X23.869 Y32.92 E23.52338
G0 F6000 X23.869 Y33.485
G1 F1200 X22.169 Y31.785 E23.64333
G0 F6000 X22.169 Y32.351
G1 F1200 X23.869 Y34.051 E23.76327
G0 F6000 X23.869 Y34.617
G1 F1200 X22.169 Y32.917 E23.88322
G0 F6000 X22.169 Y33.482
G1 F1200 X23.869 Y35.182 E24.00316
G0 F6000 X23.869 Y35.748
G1 F1200 X22.169 Y34.048 E24.1231
G0 F6000 X22.169 Y34.614
G1 F1200 X23.869 Y36.314 E24.24305
G0 F6000 X23.869 Y36.879
G1 F1200 X22.169 Y35.179 E24.36299
G0 F6000 X22.169 Y35.745
G1 F1200 X23.869 Y37.445 E24.48294
G0 F6000 X23.869 Y38.011
G1 F1200 X22.169 Y36.311 E24.60288
G0 F6000 X22.169 Y36.877
G1 F1200 X23.869 Y38.576 E24.72279
G0 F6000 X23.869 Y39.142
G1 F1200 X22.169 Y37.442 E24.84273
G0 F6000 X22.169 Y38.008
G1 F1200 X23.869 Y39.708 E24.96268
G0 F6000 X23.869 Y40.273
G1 F1200 X22.169 Y38.574 E25.08259
G0 F6000 X22.169 Y39.139
G1 F1200 X23.869 Y40.839 E25.20253
G0 F6000 X23.869 Y41.405
G1 F1200 X22.169 Y39.705 E25.32247
G0 F6000 X22.169 Y40.271
G1 F1200 X23.869 Y41.971 E25.44242
G0 F6000 X23.869 Y42.536
G1 F1200 X22.169 Y40.836 E25.56236
G0 F6000 X22.169 Y41.402
G1 F1200 X23.869 Y43.102 E25.68231
G0 F6000 X23.869 Y43.668
G1 F1200 X22.169 Y41.968 E25.80225
G0 F6000 X22.169 Y42.533
G1 F1200 X23.869 Y44.233 E25.9222
G0 F6000 X23.869 Y44.799
G1 F1200 X22.169 Y43.099 E26.04214
G0 F6000 X22.169 Y43.665
G1 F1200 X25.208 Y46.704 E26.25656
G0 F6000 X24.642 Y46.704
G1 F1200 X22.169 Y44.23 E26.43108
G0 F6000 X22.169 Y44.796
G1 F1200 X24.076 Y46.704 E26.56566
G0 F6000 X23.511 Y46.704
G1 F1200 X22.169 Y45.362 E26.66035
G0 F6000 X22.169 Y45.927
G1 F1200 X22.945 Y46.704 E26.71513
G0 F6000 X22.379 Y46.704
G1 F1200 X22.169 Y46.493 E26.72998
G1 F2700 E21.72998
G0 F6000 X21.729 Y46.493
G0 X21.829 Y44.595
G0 X24.229 Y44.595
G0 X24.309 Y44.595
G0 X24.074 Y45.004
G1 F2700 E26.72998
G1 F1200 X25.774 Y46.704 E26.84993
G0 F6000 X26.339 Y46.704
G1 F1200 X24.639 Y45.004 E26.96987
G0 F6000 X25.205 Y45.004
G1 F1200 X26.905 Y46.704 E27.08982
G0 F6000 X27.471 Y46.704
G1 F1200 X25.771 Y45.004 E27.20976
G0 F6000 X26.336 Y45.004
G1 F1200 X28.036 Y46.704 E27.32971
G0 F6000 X28.602 Y46.704
G1 F1200 X26.902 Y45.004 E27.44965
G0 F6000 X27.468 Y45.004
G1 F1200 X29.168 Y46.704 E27.56959
G0 F6000 X29.733 Y46.704
G1 F1200 X28.033 Y45.004 E27.68954
G0 F6000 X28.599 Y45.004
G1 F1200 X30.299 Y46.704 E27.80948
G0 F6000 X30.865 Y46.704
G1 F1200 X29.165 Y45.004 E27.92943
G0 F6000 X29.731 Y45.004
G1 F1200 X31.43 Y46.704 E28.04934
G0 F6000 X31.996 Y46.704
G1 F1200 X30.296 Y45.004 E28.16928
G0 F6000 X30.862 Y45.004
G1 F1200 X32.562 Y46.704 E28.28922
G0 F6000 X33.127 Y46.704
G1 F1200 X31.428 Y45.004 E28.40913
G0 F6000 X31.993 Y45.004
G1 F1200 X33.693 Y46.704 E28.52908
G0 F6000 X34.259 Y46.704
G1 F1200 X32.559 Y45.004 E28.64902
G0 F6000 X33.125 Y45.004
G1 F1200 X34.825 Y46.704 E28.76897
G0 F6000 X35.39 Y46.704
G1 F1200 X33.69 Y45.004 E28.88891
G0 F6000 X34.256 Y45.004
G1 F1200 X35.956 Y46.704 E29.00885
G0 F6000 X36.522 Y46.704
G1 F1200 X34.822 Y45.004 E29.1288
G0 F6000 X35.387 Y45.004
G1 F1200 X37.087 Y46.704 E29.24874
G0 F6000 X37.653 Y46.704
G1 F1200 X35.953 Y45.004 E29.36869
G0 F6000 X36.519 Y45.004
G1 F1200 X38.219 Y46.704 E29.48863
G0 F6000 X38.784 Y46.704
G1 F1200 X37.084 Y45.004 E29.60857
G0 F6000 X37.65 Y45.004
G1 F1200 X39.35 Y46.704 E29.72852
G0 F6000 X39.869 Y46.657
G1 F1200 X38.168 Y44.956 E29.84853
G0 F6000 X38.168 Y44.39
G1 F1200 X39.869 Y46.092 E29.96858
G0 F6000 X39.869 Y45.526
G1 F1200 X38.168 Y43.825 E30.0886
G0 F6000 X38.168 Y43.259
G1 F1200 X39.869 Y44.96 E30.20861
G0 F6000 X39.869 Y44.394
G1 F1200 X38.168 Y42.693 E30.32863
G0 F6000 X38.168 Y42.128
G1 F1200 X39.869 Y43.829 E30.44864
G0 F6000 X39.869 Y43.263
G1 F1200 X38.168 Y41.562 E30.56866
G0 F6000 X38.168 Y40.996
G1 F1200 X39.869 Y42.697 E30.68867
G0 F6000 X39.869 Y42.132
G1 F1200 X38.168 Y40.43 E30.80872
G0 F6000 X38.168 Y39.865
G1 F1200 X39.869 Y41.566 E30.92874
G0 F6000 X39.869 Y41
G1 F1200 X38.168 Y39.299 E31.04875
G0 F6000 X38.168 Y38.733
G1 F1200 X39.869 Y40.435 E31.1688
G0 F6000 X39.869 Y39.869
G1 F1200 X38.168 Y38.168 E31.28882
G0 F6000 X38.168 Y37.602
G1 F1200 X39.869 Y39.303 E31.40883
G0 F6000 X39.869 Y38.738
G1 F1200 X38.168 Y37.036 E31.52888
G0 F6000 X38.168 Y36.471
G1 F1200 X39.869 Y38.172 E31.6489
G0 F6000 X39.869 Y37.606
G1 F1200 X38.168 Y35.905 E31.76891
G0 F6000 X38.168 Y35.339
G1 F1200 X39.869 Y37.041 E31.88896
G0 F6000 X39.869 Y36.475
G1 F1200 X38.168 Y34.774 E32.00898
G0 F6000 X38.168 Y34.208
G1 F1200 X39.869 Y35.909 E32.12899
G0 F6000 X39.869 Y35.344
G1 F1200 X38.168 Y33.642 E32.24904
G0 F6000 X38.168 Y33.077
G1 F1200 X39.869 Y34.778 E32.36905
G0 F6000 X39.869 Y34.212
G1 F1200 X38.168 Y32.511 E32.48907
G0 F6000 X38.168 Y31.945
G1 F1200 X39.869 Y33.646 E32.60908
G0 F6000 X39.869 Y33.081
G1 F1200 X38.168 Y31.379 E32.72913
G0 F6000 X37.701 Y31.173
;MESH:NONMESH
G0 F300 X37.701 Y31.173 Z0.6
G0 F6000 X37.619 Y44.455
;TIME_ELAPSED:49.174747
;LAYER:1
M140 S50
M106 S127.5
;TYPE:WALL-INNER
;MESH:Ripple_test.STL
G1 F1350 X37.619 Y31.255 E33.38768
G1 X24.419 Y31.255 E34.04624
G1 X24.419 Y44.455 E34.70479
G1 X37.619 Y44.455 E35.36334
G0 F7500 X37.219 Y44.055
;TYPE:WALL-OUTER
G1 F1350 X37.219 Y31.655 E35.98198
G1 X24.819 Y31.655 E36.60061
G1 X24.819 Y44.055 E37.21925
G1 X37.219 Y44.055 E37.83789
G1 F2700 E32.83789
G0 F7500 X37.519 Y44.055
G0 X37.815 Y44.651
G0 X37.815 Y47.045
G0 X40.419 Y47.255
;TYPE:WALL-INNER
G1 F2700 E37.83789
G1 F1350 X21.619 Y47.255 E38.77583
G1 X21.619 Y28.455 E39.71376
G1 X40.419 Y28.455 E40.6517
G1 X40.419 Y47.255 E41.58963
G0 F7500 X40.819 Y47.655
;TYPE:WALL-OUTER
G1 F1350 X21.219 Y47.655 E42.56748
G1 X21.219 Y28.055 E43.54533
G1 X40.819 Y28.055 E44.52318
G1 X40.819 Y47.655 E45.50103
G0 F7500 X40.549 Y47.385
G0 X40.309 Y46.865
G0 X40.029 Y46.865
;TYPE:SKIN
G1 F1350 X22.009 Y46.865 E46.40005
G1 X22.009 Y28.845 E47.29907
G1 X40.029 Y28.845 E48.19809
G1 X40.029 Y46.865 E49.09711
G1 F2700 E44.09711
G0 F7500 X40.309 Y46.865
G0 X40.209 Y44.595
G0 X37.809 Y44.595
G0 X37.729 Y44.595
G0 X38.009 Y44.845
G1 F2700 E49.09711
G1 F1350 X38.009 Y30.865 E49.79458
G1 X24.029 Y30.865 E50.49204
G1 X24.029 Y44.845 E51.18951
G1 X38.009 Y44.845 E51.88697
G1 F2700 E46.88697
G0 F7500 X37.729 Y44.595
G0 X37.815 Y44.651
G0 X37.815 Y47.045
G0 X39.279 Y47.145
G0 X39.279 Y46.704
G1 F2700 E51.88697
G1 F1350 X39.868 Y46.115 E51.92853
G0 F7500 X39.868 Y45.549
G1 F1350 X38.714 Y46.704 E52.00999
G0 F7500 X38.148 Y46.704
G1 F1350 X39.868 Y44.984 E52.13134
G0 F7500 X39.868 Y44.418
G1 F1350 X37.582 Y46.704 E52.29263
G0 F7500 X37.017 Y46.704
G1 F1350 X39.868 Y43.852 E52.49382
G0 F7500 X39.868 Y43.286
G1 F1350 X38.168 Y44.986 E52.61376
G0 F7500 X38.151 Y45.003
G1 F1350 X36.451 Y46.704 E52.73374
G0 F7500 X35.885 Y46.704
G1 F1350 X37.586 Y45.003 E52.85376
G0 F7500 X37.02 Y45.003
G1 F1350 X35.319 Y46.704 E52.97377
G0 F7500 X34.754 Y46.704
G1 F1350 X36.454 Y45.003 E53.09375
G0 F7500 X35.889 Y45.003
G1 F1350 X34.188 Y46.704 E53.21377
G0 F7500 X33.622 Y46.704
G1 F1350 X35.323 Y45.003 E53.33378
G0 F7500 X34.757 Y45.003
G1 F1350 X33.057 Y46.704 E53.45376
G0 F7500 X32.491 Y46.704
G1 F1350 X34.192 Y45.003 E53.57378
G0 F7500 X33.626 Y45.003
G1 F1350 X31.925 Y46.704 E53.69379
G0 F7500 X31.36 Y46.704
G1 F1350 X33.06 Y45.003 E53.81377
G0 F7500 X32.495 Y45.003
G1 F1350 X30.794 Y46.704 E53.93378
G0 F7500 X30.228 Y46.704
G1 F1350 X31.929 Y45.003 E54.0538
G0 F7500 X31.363 Y45.003
G1 F1350 X29.663 Y46.704 E54.17378
G0 F7500 X29.097 Y46.704
G1 F1350 X30.798 Y45.003 E54.29379
G0 F7500 X30.232 Y45.003
G1 F1350 X28.531 Y46.704 E54.41381
G0 F7500 X27.966 Y46.704
G1 F1350 X29.666 Y45.003 E54.53379
G0 F7500 X29.1 Y45.003
G1 F1350 X27.4 Y46.704 E54.65377
G0 F7500 X26.834 Y46.704
G1 F1350 X28.535 Y45.003 E54.77378
G0 F7500 X27.969 Y45.003
G1 F1350 X26.269 Y46.704 E54.89376
G0 F7500 X25.703 Y46.704
G1 F1350 X27.403 Y45.003 E55.01374
G0 F7500 X26.838 Y45.003
G1 F1350 X25.137 Y46.704 E55.13376
G0 F7500 X24.571 Y46.704
G1 F1350 X26.272 Y45.003 E55.25377
G0 F7500 X25.706 Y45.003
G1 F1350 X24.006 Y46.704 E55.37375
G0 F7500 X23.44 Y46.704
G1 F1350 X25.141 Y45.003 E55.49376
G0 F7500 X24.575 Y45.003
G1 F1350 X22.874 Y46.704 E55.61378
G0 F7500 X22.309 Y46.704
G1 F1350 X24.009 Y45.003 E55.73376
G0 F7500 X23.869 Y44.578
G1 F1350 X22.169 Y46.278 E55.8537
G0 F7500 X22.169 Y45.713
G1 F1350 X23.869 Y44.013 E55.97365
G0 F7500 X23.869 Y43.447
G1 F1350 X22.169 Y45.147 E56.09359
G0 F7500 X22.169 Y44.581
G1 F1350 X23.869 Y42.881 E56.21353
G0 F7500 X23.869 Y42.316
G1 F1350 X22.169 Y44.015 E56.33344
G0 F7500 X22.169 Y43.45
G1 F1350 X23.869 Y41.75 E56.45339
G0 F7500 X23.869 Y41.184
G1 F1350 X22.169 Y42.884 E56.57333
G0 F7500 X22.169 Y42.318
G1 F1350 X23.869 Y40.619 E56.69324
G0 F7500 X23.869 Y40.053
G1 F1350 X22.169 Y41.753 E56.81319
G0 F7500 X22.169 Y41.187
G1 F1350 X23.869 Y39.487 E56.93313
G0 F7500 X23.869 Y38.921
G1 F1350 X22.169 Y40.621 E57.05307
G0 F7500 X22.169 Y40.056
G1 F1350 X23.869 Y38.356 E57.17302
G0 F7500 X23.869 Y37.79
G1 F1350 X22.169 Y39.49 E57.29296
G0 F7500 X22.169 Y38.924
G1 F1350 X23.869 Y37.224 E57.41291
G0 F7500 X23.869 Y36.659
G1 F1350 X22.169 Y38.359 E57.53285
G0 F7500 X22.169 Y37.793
G1 F1350 X23.869 Y36.093 E57.65279
G0 F7500 X23.869 Y35.527
G1 F1350 X22.169 Y37.227 E57.77274
G0 F7500 X22.169 Y36.662
G1 F1350 X23.869 Y34.962 E57.89268
G0 F7500 X23.869 Y34.396
G1 F1350 X22.169 Y36.096 E58.01263
G0 F7500 X22.169 Y35.53
G1 F1350 X23.869 Y33.83 E58.13257
G0 F7500 X23.869 Y33.265
G1 F1350 X22.169 Y34.965 E58.25252
G0 F7500 X22.169 Y34.399
G1 F1350 X23.869 Y32.699 E58.37246
G0 F7500 X23.869 Y32.133
G1 F1350 X22.169 Y33.833 E58.4924
G0 F7500 X22.169 Y33.267
G1 F1350 X23.869 Y31.568 E58.61231
G0 F7500 X23.869 Y31.002
G1 F1350 X22.169 Y32.702 E58.73226
G0 F7500 X22.169 Y32.136
G1 F1350 X25.301 Y29.004 E58.95324
G0 F7500 X24.736 Y29.004
G1 F1350 X22.169 Y31.57 E59.13432
G0 F7500 X22.169 Y31.005
G1 F1350 X24.17 Y29.004 E59.2755
G0 F7500 X23.604 Y29.004
G1 F1350 X22.169 Y30.439 E59.37675
G0 F7500 X22.169 Y29.873
G1 F1350 X23.038 Y29.004 E59.43806
G0 F7500 X22.473 Y29.004
G1 F1350 X22.169 Y29.308 E59.45951
G1 F2700 E54.45951
G0 F7500 X21.729 Y29.308
G0 X21.829 Y31.145
G0 X24.229 Y31.145
G0 X24.166 Y30.704
G1 F2700 E59.45951
G1 F1350 X25.867 Y29.004 E59.57949
G0 F7500 X26.433 Y29.004
G1 F1350 X24.732 Y30.704 E59.69947
G0 F7500 X25.298 Y30.704
G1 F1350 X26.998 Y29.004 E59.81941
G0 F7500 X27.564 Y29.004
G1 F1350 X25.863 Y30.704 E59.93939
G0 F7500 X26.429 Y30.704
G1 F1350 X28.13 Y29.004 E60.05937
G0 F7500 X28.695 Y29.004
G1 F1350 X26.995 Y30.704 E60.17931
G0 F7500 X27.56 Y30.704
G1 F1350 X29.261 Y29.004 E60.29929
G0 F7500 X29.827 Y29.004
G1 F1350 X28.126 Y30.704 E60.41927
G0 F7500 X28.692 Y30.704
G1 F1350 X30.392 Y29.004 E60.53922
G0 F7500 X30.958 Y29.004
G1 F1350 X29.257 Y30.704 E60.6592
G0 F7500 X29.823 Y30.704
G1 F1350 X31.524 Y29.004 E60.77918
G0 F7500 X32.089 Y29.004
G1 F1350 X30.389 Y30.704 E60.89912
G0 F7500 X30.955 Y30.704
G1 F1350 X32.655 Y29.004 E61.01906
G0 F7500 X33.221 Y29.004
G1 F1350 X31.519 Y30.705 E61.13911
G0 F7500 X32.085 Y30.705
G1 F1350 X33.786 Y29.004 E61.25913
G0 F7500 X34.352 Y29.004
G1 F1350 X32.651 Y30.705 E61.37914
G0 F7500 X33.217 Y30.705
G1 F1350 X34.918 Y29.004 E61.49916
